icons/svg/road_shields/h_us_state_business_icon_shield.svg

<?xml version="1.0" encoding="UTF-8" standalone="no"?>
<!-- Generator: Adobe Illustrator 16.0.4, SVG Export Plug-In . SVG Version: 6.00 Build 0)  -->

<svg
   xmlns:dc="http://purl.org/dc/elements/1.1/"
   xmlns:cc="http://creativecommons.org/ns#"
   xmlns:rdf="http://www.w3.org/1999/02/22-rdf-syntax-ns#"
   xmlns:svg="http://www.w3.org/2000/svg"
   xmlns="http://www.w3.org/2000/svg"
   xmlns:sodipodi="http://sodipodi.sourceforge.net/DTD/sodipodi-0.dtd"
   xmlns:inkscape="http://www.inkscape.org/namespaces/inkscape"
   version="1.1"
   id="Слой_1"
   x="0px"
   y="0px"
   width="25"
   height="33"
   viewBox="0 0 25 33"
   enable-background="new 0 0 17.143 17.17"
   xml:space="preserve"
   inkscape:version="0.91 r"
   sodipodi:docname="h_us_state_business_icon_shield.svg"><metadata
     id="metadata13"><rdf:RDF><cc:Work
         rdf:about=""><dc:format>image/svg+xml</dc:format><dc:type
           rdf:resource="http://purl.org/dc/dcmitype/StillImage" /><dc:title /></cc:Work></rdf:RDF></metadata><defs
     id="defs11" /><sodipodi:namedview
     pagecolor="#ffffff"
     bordercolor="#666666"
     borderopacity="1"
     objecttolerance="10"
     gridtolerance="10"
     guidetolerance="10"
     inkscape:pageopacity="0"
     inkscape:pageshadow="2"
     inkscape:window-width="1920"
     inkscape:window-height="1004"
     id="namedview9"
     showgrid="false"
     inkscape:zoom="19.43823"
     inkscape:cx="5.4260692"
     inkscape:cy="25.857966"
     inkscape:window-x="1680"
     inkscape:window-y="0"
     inkscape:window-maximized="1"
     inkscape:current-layer="Слой_1" /><rect
     style="color:#000000;clip-rule:evenodd;display:inline;overflow:visible;visibility:visible;opacity:1;isolation:auto;mix-blend-mode:normal;color-interpolation:sRGB;color-interpolation-filters:linearRGB;solid-color:#000000;solid-opacity:1;fill:#ffffff;fill-opacity:1;fill-rule:evenodd;stroke:#515151;stroke-width:1.08273661;stroke-linecap:butt;stroke-linejoin:miter;stroke-miterlimit:4;stroke-dasharray:none;stroke-dashoffset:0;stroke-opacity:1;marker:none;color-rendering:auto;image-rendering:auto;shape-rendering:auto;text-rendering:auto;enable-background:accumulate"
     id="rect4135"
     width="19.803215"
     height="7.0026784"
     x="2.598392"
     y="0.60558748"
     ry="0" /><path
     inkscape:connector-curvature="0"
     id="path4142"
     style="font-style:normal;font-variant:normal;font-weight:bold;font-stretch:normal;font-size:medium;line-height:125%;font-family:Sans;-inkscape-font-specification:'Sans Bold';letter-spacing:0px;word-spacing:0px;fill:#515151;fill-opacity:1;stroke:none;stroke-width:1px;stroke-linecap:butt;stroke-linejoin:miter;stroke-opacity:1"
     d="m 7.1976347,3.6134966 q 0.304907,0 0.4623864,-0.1164436 0.1574793,-0.1164437 0.1574793,-0.3435088 0,-0.2241541 -0.1574793,-0.3405977 Q 7.5025417,2.6935917 7.1976347,2.6935917 l -0.7136832,0 0,0.9199049 0.7136832,0 z m 0.043558,1.9009427 q 0.3886725,0 0.5830088,-0.1426436 0.1976869,-0.1426434 0.1976869,-0.4308415 0,-0.2823758 -0.1943362,-0.4221082 Q 7.6332161,4.3762025 7.2411929,4.3762025 l -0.7572414,0 0,1.1382368 0.7572414,0 z M 8.4407168,3.9511832 q 0.4154776,0.1047993 0.6433202,0.3871751 0.2278425,0.2823759 0.2278425,0.6928397 0,0.6287958 -0.4891913,0.9373715 Q 8.3334969,6.277145 7.3350104,6.277145 l -2.1410498,0 0,-4.3462591 1.9366616,0 q 1.0420445,0 1.5077815,0.2736425 0.4690876,0.2736426 0.4690876,0.8762385 0,0.317309 -0.1708819,0.541463 -0.1708819,0.2212429 -0.4958926,0.3289533 z" /><path
     inkscape:connector-curvature="0"
     id="path4144"
     style="font-style:normal;font-variant:normal;font-weight:bold;font-stretch:normal;font-size:medium;line-height:125%;font-family:Sans;-inkscape-font-specification:'Sans Bold';letter-spacing:0px;word-spacing:0px;fill:#515151;fill-opacity:1;stroke:none;stroke-width:1px;stroke-linecap:butt;stroke-linejoin:miter;stroke-opacity:1"
     d="m 10.420937,1.9308859 1.28999,0 0,2.6054267 q 0,0.5385519 0.201038,0.7714391 0.204389,0.2299763 0.663424,0.2299763 0.462386,0 0.663424,-0.2299763 0.204388,-0.2328872 0.204388,-0.7714391 l 0,-2.6054267 1.289991,0 0,2.6054267 q 0,0.9228159 -0.53275,1.374035 -0.53275,0.4512194 -1.625053,0.4512194 -1.088954,0 -1.621703,-0.4512194 -0.532749,-0.4512191 -0.532749,-1.374035 l 0,-2.6054267 z" /><path
     inkscape:connector-curvature="0"
     id="path4146"
     style="font-style:normal;font-variant:normal;font-weight:bold;font-stretch:normal;font-size:medium;line-height:125%;font-family:Sans;-inkscape-font-specification:'Sans Bold';letter-spacing:0px;word-spacing:0px;fill:#515151;fill-opacity:1;stroke:none;stroke-width:1px;stroke-linecap:butt;stroke-linejoin:miter;stroke-opacity:1"
     d="m 19.477678,2.0677071 0,0.9199049 q -0.412128,-0.16011 -0.804151,-0.2416206 -0.392023,-0.08151 -0.740488,-0.08151 -0.462386,0 -0.683527,0.1106214 -0.221141,0.1106215 -0.221141,0.3435088 0,0.1746655 0.147427,0.2736426 0.150778,0.096066 0.542802,0.1659321 l 0.549502,0.096066 q 0.834306,0.1455545 1.186121,0.4424859 0.351816,0.2969313 0.351816,0.8442164 0,0.7190396 -0.492542,1.0712817 -0.489192,0.3493307 -1.497729,0.3493307 -0.47579,0 -0.954929,-0.0786 -0.47914,-0.0786 -0.958279,-0.232887 l 0,-0.9461045 q 0.479139,0.221243 0.924772,0.3347755 0.448985,0.1106215 0.864462,0.1106215 0.422179,0 0.646671,-0.1222658 0.224492,-0.1222658 0.224492,-0.349331 0,-0.2037764 -0.154128,-0.3143979 -0.15078,-0.1106214 -0.606464,-0.1979541 L 17.303122,4.4693577 Q 16.552581,4.3296254 16.204116,4.0239608 15.859002,3.7182962 15.859002,3.2001219 q 0,-0.6491733 0.48249,-0.9985042 0.48249,-0.3493308 1.387159,-0.3493308 0.412127,0 0.847708,0.055311 0.435582,0.052399 0.901319,0.1601099 z" /></svg>

<svg width="25" height="33" viewBox="0 0 25 33" fill="none" xmlns="http://www.w3.org/2000/svg">
<path d="M22.4016 0.605591H2.59839V7.60827H22.4016V0.605591Z" fill="white" stroke="#515151" stroke-width="1.08274"/>
<path d="M7.19763 3.61352C7.4009 3.61352 7.55503 3.5747 7.66002 3.49708C7.765 3.41945 7.81749 3.30494 7.81749 3.15357C7.81749 3.00413 7.765 2.8906 7.66002 2.81297C7.55503 2.7334 7.4009 2.69361 7.19763 2.69361H6.48395V3.61352H7.19763ZM7.24119 5.51446C7.5003 5.51446 7.69464 5.46691 7.8242 5.37182C7.95599 5.27672 8.02188 5.13311 8.02188 4.94098C8.02188 4.75273 7.9571 4.61202 7.82755 4.51887C7.69799 4.42377 7.50254 4.37622 7.24119 4.37622H6.48395V5.51446H7.24119V5.51446ZM8.44071 3.95121C8.7177 4.02107 8.93214 4.15013 9.08403 4.33838C9.23593 4.52663 9.31187 4.75758 9.31187 5.03122C9.31187 5.45042 9.14881 5.76287 8.82268 5.96859C8.49655 6.17431 8.00066 6.27717 7.335 6.27717H5.19395V1.93091H7.13062C7.82531 1.93091 8.32791 2.02212 8.6384 2.20455C8.95112 2.38698 9.10749 2.67906 9.10749 3.08079C9.10749 3.29233 9.05052 3.47282 8.9366 3.62225C8.82268 3.76975 8.65738 3.8794 8.44071 3.95121V3.95121Z" fill="#515151"/>
<path d="M10.4209 1.93091H11.7109V4.53633C11.7109 4.89537 11.7779 5.15252 11.912 5.30777C12.0482 5.46109 12.2694 5.53775 12.5754 5.53775C12.8836 5.53775 13.1048 5.46109 13.2388 5.30777C13.3751 5.15252 13.4432 4.89537 13.4432 4.53633V1.93091H14.7332V4.53633C14.7332 5.15155 14.5556 5.60956 14.2004 5.91037C13.8453 6.21118 13.3036 6.36159 12.5754 6.36159C11.8494 6.36159 11.3088 6.21118 10.9537 5.91037C10.5985 5.60956 10.4209 5.15155 10.4209 4.53633V1.93091V1.93091Z" fill="#515151"/>
<path d="M19.4777 2.06772V2.98762C19.2029 2.88088 18.9349 2.80034 18.6735 2.746C18.4122 2.69166 18.1654 2.66449 17.933 2.66449C17.6248 2.66449 17.3969 2.70136 17.2495 2.77511C17.1021 2.84886 17.0284 2.96336 17.0284 3.11862C17.0284 3.23506 17.0775 3.32628 17.1758 3.39226C17.2763 3.45631 17.4573 3.51162 17.7186 3.55819L18.2681 3.65426C18.8243 3.7513 19.2197 3.89879 19.4542 4.09675C19.6888 4.2947 19.806 4.57611 19.806 4.94096C19.806 5.42032 19.6419 5.77742 19.3135 6.01224C18.9874 6.24513 18.4881 6.36158 17.8158 6.36158C17.4986 6.36158 17.1803 6.33538 16.8608 6.28298C16.5414 6.23058 16.222 6.15295 15.9026 6.05009V5.10398C16.222 5.25148 16.5302 5.36307 16.8273 5.43876C17.1267 5.51251 17.4148 5.54938 17.6918 5.54938C17.9733 5.54938 18.1888 5.50863 18.3385 5.42711C18.4881 5.3456 18.563 5.22916 18.563 5.07778C18.563 4.94193 18.5116 4.83713 18.4088 4.76339C18.3083 4.68964 18.1062 4.62365 17.8024 4.56543L17.3031 4.46937C16.8028 4.37621 16.4364 4.22775 16.2041 4.02397C15.974 3.82019 15.859 3.54558 15.859 3.20013C15.859 2.76735 16.0198 2.43451 16.3415 2.20163C16.6632 1.96874 17.1255 1.85229 17.7287 1.85229C18.0034 1.85229 18.286 1.87073 18.5764 1.90761C18.8668 1.94254 19.1672 1.99591 19.4777 2.06772V2.06772Z" fill="#515151"/>
</svg>
